X: 23169
T: Le Petit Coin
R: polka
M: 2/4
K: Gmajor
B/c/|:de dB/c/|de d2|g/f/e/d/ c/B/A/G/|BA AB/c/|
de dB/c/|de d2|g/d/c/B/ A/G/A/B/|1 Gd GB/c/:|2 Gd Gg/f/||
|:ed B/c/d/B/|eA A/B/c/A/|dG GA/B/|c/B/c/d/ e/d/g/f/|
ed B/c/d/B/|eA A/B/c/A/|dG GA/B/|1 c/d/e/f/ gg/f/:|2 Gd GB/c/||

